X:1
T: Miss Lexie Smith
C:Dan R. MacDonald
R:Strathspey
Q: 128
K:Bb
M:4/4
L:1/16
|:FB3 d3c B3B, D3F|((3B,2D2F2) ((3B2c2d2) c3C EG3|FB3 d3c B3B, DF3|GB3 F3D B,B,B,2 B,3D|
FB3 d3c B3B, D3F|((3B,2D2F2) ((3B2c2d2) c3C EG3|FB3 d3c B2B,C ((3D2E2F2) |GB3 F3D B,B,B,2 B,3e|
df3 B3e d3f b3f|gb3 d3f g3c c3e|df3 B3e d3f b3f|ge3 f3d BBB2 B3e|
df3 B3e d3f b3f|gb3 d3f g3c c3a|((3b2a2g2) ((3f2d2B2) ((3e2d2c2) ((3B2F2D2) |B,3g f3d BBB2 B4:|
